packages/foundations/assets/icons/functional/images/environment/water_drop_14_filled.svg

<svg width="14" height="14" viewBox="0 0 14 14" fill="none" xmlns="http://www.w3.org/2000/svg">
<g clip-path="url(#clip0_2204_3030)">
<path fill-rule="evenodd" clip-rule="evenodd" d="M10.1029 5.17755C10.1029 5.17755 8.5803 2.91121 7.88684 1.87036C7.84265 1.80473 7.78971 1.74873 7.73065 1.70322C7.53508 1.51072 7.27082 1.40002 6.9908 1.40002H6.98862C6.63598 1.4009 6.30872 1.57678 6.11271 1.87036C5.42012 2.90946 3.9015 5.17011 3.90193 5.17011C3.13059 6.28665 2.73901 7.34063 2.73901 8.30317C2.73901 10.7533 4.5709 12.6 6.99999 12.6C9.42909 12.6 11.261 10.7528 11.261 8.30317C11.261 7.34063 10.869 6.28709 10.1029 5.17755Z" fill="#1A1C1F"/>
</g>
<defs>
<clipPath id="clip0_2204_3030">
<rect width="14" height="14" fill="white"/>
</clipPath>
</defs>
</svg>

<svg xmlns="http://www.w3.org/2000/svg" width="14" height="14" fill="none"><g clip-path="url(#a)"><path fill="#1A1C1F" fill-rule="evenodd" d="M10.103 5.178S8.58 2.91 7.887 1.87a.7.7 0 0 0-.156-.167 1.05 1.05 0 0 0-.74-.303h-.002c-.353 0-.68.177-.876.47-.693 1.04-2.212 3.3-2.211 3.3-.771 1.117-1.163 2.17-1.163 3.133 0 2.45 1.832 4.297 4.261 4.297s4.261-1.847 4.261-4.297c0-.962-.392-2.016-1.158-3.125" clip-rule="evenodd"/></g><defs><clipPath id="a"><path fill="#fff" d="M0 0h14v14H0z"/></clipPath></defs></svg>
